src/actions/symbolic/xapp-go-history-previous-symbolic.svg

<svg width="16" height="16" version="1.1" xmlns="http://www.w3.org/2000/svg">
 <path d="m1.416 5.5a44.122 44.122 0 0 0 2.26 1.334c0.788 0.43 1.562 0.818 2.322 1.166v-2h8.002v-1h-8v-2a43.07 43.07 0 0 0-2.324 1.18 50.17 50.17 0 0 0-2.26 1.32zm1.584 8.5h3v-3h-3zm1-1v-1h1v1zm3 1h3v-3h-3zm1-1v-1h1v1zm3 1h3v-3h-3zm1-1v-1h1v1z" color="#000000" fill="currentColor" font-family="sans-serif" font-weight="400" overflow="visible" style="font-feature-settings:normal;font-variant-alternates:normal;font-variant-caps:normal;font-variant-ligatures:none;font-variant-numeric:normal;font-variant-position:normal;isolation:auto;mix-blend-mode:normal;shape-padding:0;text-decoration-color:#000000;text-decoration-line:none;text-decoration-style:solid;text-indent:0;text-transform:none" white-space="normal"/>
</svg>

<svg xmlns="http://www.w3.org/2000/svg" width="16" height="16"><path fill="currentColor" d="M1.416 5.5a44 44 0 0 0 2.26 1.334Q4.858 7.478 5.998 8V6H14V5H6V3a43 43 0 0 0-2.324 1.18 50 50 0 0 0-2.26 1.32M3 14h3v-3H3zm1-1v-1h1v1zm3 1h3v-3H7zm1-1v-1h1v1zm3 1h3v-3h-3zm1-1v-1h1v1z" color="#000" font-family="sans-serif" font-weight="400" overflow="visible" style="font-feature-settings:normal;font-variant-alternates:normal;font-variant-caps:normal;font-variant-ligatures:none;font-variant-numeric:normal;font-variant-position:normal;isolation:auto;mix-blend-mode:normal;shape-padding:0;text-decoration-color:#000;text-decoration-line:none;text-decoration-style:solid;text-indent:0;text-transform:none"/></svg>
